X: 1
T: Moving The Goalposts
M: 4/4
L: 1/8
R: reel
K: Gmaj
|:Bc|dA~A2 f2ef|d2ed cAFA|G2BG G2Bd|ecge dcBc|
dA~A2 f2ef|d2ed cAdc|BG~G2 DGBd|cAFA G2:|
|:Bd|g2bg (3efg dc|BGBd g2fg|eA~A2 EAce|fdd^c defa|
g2bg (3efg dc|BGBd gedc|BG~G2 DGBd|cAFA G2:|
